X:2
T:The Sloe
C:Trad
K:D
r:32
M: 2/4
L:1/16
R: Polka
Z: B Rowe for Warwick Folk,JH
A2 | "D"d3A d2e2 | f3e d2c2 | "G"B3A BcdB | "A"A2F2 E2D2 |
"D"d3A d2e2 | f3e d2c2 | "G"B2e2 "A"c2A2 | "D"d4d2 ::
A2 | "D"B2A2 F2A2 | B2A2 F2dd | "A"d2cc c2BB | B2A2 A2dd |
"A"d2cc c2ee | "D"e2d2 d2f2 | "G"g2e2 "A"B2c2 | "D"d4d2 :|
